X:1
T:Title
%%score { 1 | ( 2 3 ) }
L:1/8
M:4/4
K:G
V:1 treble nm="Grand Piano"
V:2 bass 
V:3 bass 
V:1
 z4 z2[Q:1/4=100] D2 | B3 G D2 D2 | E2 [Ec]2 B2 B2 | B3 A F2 D2 |[M:3/4] [_B,^CE]4 D2 |[M:1/4] D2 | %6
[M:4/4] B3 G D2 D2 | E2 [Ec]2 B2 B2 | [Fd]3 [Fc] [DGB]2 [CDA]2 |[M:5/8] [B,DG]-[B,DG]- [B,DG]3 | %10
[M:3/8] DDE |[M:4/4] F2 [Fc]2 [Fc]2 [Ec]2 | c4- cDEF | G2 B2 B2 [DB]2 |[M:3/4] [DB]6 |[M:1/4] B2 | %16
[M:4/4] A3 B c2 A2 | B2 c2 d2 B2 | [FA]3 [GB] [Ac]2 [FA]2 |[M:3/4] [GB]2 [Ac]2 [Bd]2 | %20
[M:1/4] [GB]2 |[M:4/4] [Ge]3 [Ge] [Ec]2 [Ge]2 | d2 B2 G[DG][DF][CE] | [B,D]2 [Ec]2 [DB]3 [CDA] | %24
[M:3/4] [B,DG]6 |] %25
V:2
 z4 z2 D,2 | [G,D]3 [G,B,] [G,B,]2 [G,B,]2 | [C,G,C]2 [C,G,]2 [G,D]2 [G,D]2 | %3
 [D,F,D]3 [D,F,C] [D,A,C]2 [D,A,C]2 |[M:3/4] z2 z2 B,2 |[M:1/4] [G,B,]2 | %6
[M:4/4] [G,D]3 [G,B,] [G,B,]2 [G,B,]2 | [C,G,C]2 [C,G,]2 [G,D]2 [G,D]2 | [D,A,]3 [D,A,] D,2 D,2 | %9
[M:5/8] G,,-G,,- G,,3 |[M:3/8] [D,F,][D,F,][D,G,D] |[M:4/4] [D,A,D]2 [D,A,]2 [D,A,]2 [D,G,]2 | %12
 [D,F,D]4- [D,F,D][D,F,][D,G,D][D,A,D] | [G,B,D]2 [G,DG]2[K:bass] [D,G,D]2 [B,,G,]2 | %14
[M:3/4] [G,,G,]6 |[M:1/4] [G,D]2 |[M:4/4] [D,F,D]3 [D,G,D] [D,A,D]2 [D,F,D]2 | %17
 [G,D]2 [G,A,D]2 [G,B,G]2 [G,DG]2 | [D,D]3 [D,D] [D,D]2 [D,D]2 |[M:3/4] [G,D]2 [G,D]2 [G,D]2 | %20
[M:1/4] [G,D]2 |[M:4/4] [C,C]3 [C,C] [C,G,]2 [C,C]2 | %22
 [G,B,G]2 [G,DG]2[K:bass] [G,B,D][B,,G,][C,G,][C,G,] | [D,G,]2 [D,F,]2 [D,G,]3 D, |[M:3/4] G,,6 |] %25
V:3
 x8 | x8 | x8 | x8 |[M:3/4] G,,6 |[M:1/4] x2 |[M:4/4] x8 | x8 | x8 |[M:5/8] x5 |[M:3/8] x3 | %11
[M:4/4] x8 | x8 | x4[K:bass] x4 |[M:3/4] x6 |[M:1/4] x2 |[M:4/4] x8 | x8 | x8 |[M:3/4] x6 | %20
[M:1/4] x2 |[M:4/4] x8 | x4[K:bass] x4 | x8 |[M:3/4] x6 |] %25

